X: 32256
T: Picc Line, The
R: jig
M: 6/8
K: Emajor
B3 cBG|FGE FEC|EEE FEF|G2B GFE|
G2e cBG|FGE FEC|E2E CB,C|E2E F2F|
G2e cBG|FGE FEC|EEE FEF|GBd edB|
G2e cBG|FGE FEC|E2E CB,C|E2E D2D||
|:CCC B,CE|F2B GFE|FFF FEF|G2B GFE|
C2C B,CE|F2B GFE|FFF EGF|1 EEE DDD:|2 Eee' eBe||

